X: 1644
T: Sabâ Seyir
C: Rauf Yektâ
O: Turkey
F: http://compmusic.upf.edu/node/140
N: saba--seyir--semai--1--rauf_yekta
N: makam= saba
N: form= seyir
N: usul= semai = 3/4
M: 3/4
L: 1/16
K: C _2/4B _3/4d  
Q: 1/4=120
%%MIDI tuningsystem comma53
A8 B4  | c8 c4  | d4 c4 B4  | c8 z4  | c8 d4  | \
w:   |   |   |   |   | 
e8 f4  | e8 d4  | c8 B4  | z4 c4 d4  | e4 f4 _7/8a4  | 
w:   |   |   |   |   | 
g8 f4  | e4 d4 c4  | c8 _7/8a4  | g4 f4 e4  | \
w:   |   |   |   | 
d4 c4 B4  | c8 z4  | c8 g4  | _7/8a8 g4  | \
w:   |   |   |   | 
=b4 _7/8a4 g4  | 
w:   | 
g8 z4  | c'4 =b4 _7/8a4  | _7/8a4 g4 f4  | \
w:   |   |   | 
g4 f4 e4  | f8 z4  | e4 f4 g4  | _7/8a4 g4 f4  | \
w:   |   |   |   | 
e8 d4  | 
w:   | 
c8 B4  | A4 B4 d4  | c8 B4  | B4 A4 G4  | A8 z4  | |


